polaris-icons/icons/newicons/ImageMajor.svg

<svg width="20" height="20" viewBox="0 0 20 20" fill="none" xmlns="http://www.w3.org/2000/svg">
<path d="M12.5 9C13.3284 9 14 8.32843 14 7.5C14 6.67157 13.3284 6 12.5 6C11.6716 6 11 6.67157 11 7.5C11 8.32843 11.6716 9 12.5 9Z" fill="black"/>
<path fill-rule="evenodd" clip-rule="evenodd" d="M8.5179 3H11.4821C12.2949 2.99999 12.9506 2.99999 13.4815 3.04336C14.0281 3.08803 14.5082 3.18239 14.9525 3.40873C15.6581 3.76825 16.2318 4.34193 16.5913 5.04754C16.8176 5.49175 16.912 5.9719 16.9566 6.51853C17 7.04944 17 7.70505 17 8.51788V11.4821C17 12.295 17 12.9506 16.9566 13.4815C16.912 14.0281 16.8176 14.5082 16.5913 14.9525C16.2318 15.6581 15.6581 16.2318 14.9525 16.5913C14.5082 16.8176 14.0281 16.912 13.4815 16.9566C12.9506 17 12.295 17 11.4821 17H8.51788C7.70505 17 7.04944 17 6.51853 16.9566C5.9719 16.912 5.49175 16.8176 5.04754 16.5913C4.34193 16.2318 3.76825 15.6581 3.40873 14.9525C3.18239 14.5082 3.08803 14.0281 3.04336 13.4815C2.99999 12.9506 2.99999 12.2949 3 11.4821V8.5179C2.99999 7.70506 2.99999 7.04944 3.04336 6.51853C3.08803 5.9719 3.18239 5.49175 3.40873 5.04754C3.76825 4.34193 4.34193 3.76825 5.04754 3.40873C5.49175 3.18239 5.9719 3.08803 6.51853 3.04336C7.04944 2.99999 7.70506 2.99999 8.5179 3ZM6.64068 4.53838C6.1868 4.57547 5.92604 4.6446 5.72852 4.74524C5.30516 4.96095 4.96095 5.30516 4.74524 5.72852C4.6446 5.92604 4.57547 6.1868 4.53838 6.64068C4.50058 7.10331 4.5 7.69755 4.5 8.55V10.6892L5.76256 9.42663C6.44598 8.74321 7.55402 8.74321 8.23744 9.42663L11 12.1892L12.2626 10.9266C12.946 10.2432 14.054 10.2432 14.7374 10.9266L15.5 11.6891L15.5 8.55C15.5 7.69755 15.4994 7.10331 15.4616 6.64068C15.4245 6.1868 15.3554 5.92604 15.2548 5.72852C15.039 5.30516 14.6948 4.96095 14.2715 4.74524C14.074 4.6446 13.8132 4.57547 13.3593 4.53838C12.8967 4.50058 12.3025 4.5 11.45 4.5H8.55C7.69755 4.5 7.10331 4.50058 6.64068 4.53838ZM4.53838 13.3593C4.52471 13.192 4.5159 13.0074 4.51024 12.7995C4.51702 12.7932 4.52372 12.7868 4.53033 12.7802L6.82322 10.4873C6.92085 10.3897 7.07915 10.3897 7.17678 10.4873L10.4697 13.7802C10.7626 14.0731 11.2374 14.0731 11.5303 13.7802L13.3232 11.9873C13.4209 11.8897 13.5791 11.8897 13.6768 11.9873L15.4181 13.7286C15.3788 13.9683 15.3243 14.135 15.2548 14.2715C15.039 14.6948 14.6948 15.039 14.2715 15.2548C14.074 15.3554 13.8132 15.4245 13.3593 15.4616C12.8967 15.4994 12.3025 15.5 11.45 15.5H8.55C7.69755 15.5 7.10331 15.4994 6.64068 15.4616C6.1868 15.4245 5.92604 15.3554 5.72852 15.2548C5.30516 15.039 4.96095 14.6948 4.74524 14.2715C4.6446 14.074 4.57547 13.8132 4.53838 13.3593Z" fill="black"/>
</svg>

<svg viewBox="0 0 20 20" fill="none" xmlns="http://www.w3.org/2000/svg"><path d="M12.5 9a1.5 1.5 0 1 0 0-3 1.5 1.5 0 0 0 0 3Z" fill="#000"/><path fill-rule="evenodd" clip-rule="evenodd" d="M8.518 3h2.964c.813 0 1.469 0 2 .043.546.045 1.026.14 1.47.366a3.75 3.75 0 0 1 1.64 1.639c.226.444.32.924.365 1.47.043.531.043 1.187.043 2v2.964c0 .813 0 1.469-.043 2-.045.546-.14 1.026-.366 1.47a3.75 3.75 0 0 1-1.639 1.64c-.444.226-.924.32-1.47.365-.531.043-1.187.043-2 .043h-2.964c-.813 0-1.469 0-2-.043-.546-.045-1.026-.14-1.47-.366a3.75 3.75 0 0 1-1.64-1.639c-.226-.444-.32-.924-.365-1.47-.043-.531-.043-1.187-.043-2v-2.964c0-.813 0-1.469.043-2 .045-.546.14-1.026.366-1.47a3.75 3.75 0 0 1 1.639-1.64c.444-.226.924-.32 1.47-.365.531-.043 1.187-.043 2-.043Zm-1.877 1.538c-.454.037-.715.107-.912.207a2.25 2.25 0 0 0-.984.984c-.1.197-.17.458-.207.912-.037.462-.038 1.057-.038 1.909v2.14l1.263-1.263a1.75 1.75 0 0 1 2.474 0l2.763 2.762 1.263-1.262a1.75 1.75 0 0 1 2.474 0l.763.762v-3.139c0-.852 0-1.447-.038-1.91-.037-.453-.107-.714-.207-.911a2.25 2.25 0 0 0-.984-.984c-.197-.1-.458-.17-.912-.207-.462-.037-1.056-.038-1.909-.038h-2.9c-.852 0-1.447 0-1.91.038Zm-2.103 8.821a10.404 10.404 0 0 1-.028-.56.774.774 0 0 0 .02-.019l2.293-2.293a.25.25 0 0 1 .354 0l3.293 3.293a.75.75 0 0 0 1.06 0l1.793-1.793a.25.25 0 0 1 .354 0l1.741 1.742c-.04.24-.094.406-.163.543-.216.423-.56.767-.984.983-.197.1-.458.17-.912.207-.462.037-1.056.038-1.909.038h-2.9c-.852 0-1.447 0-1.91-.038-.453-.037-.714-.107-.911-.207a2.25 2.25 0 0 1-.984-.984c-.1-.197-.17-.458-.207-.912Z" fill="#000"/></svg>
